Yaru++/apps/symbolic/whatsapp-symbolic.svg

<svg height="16" width="16" xmlns="http://www.w3.org/2000/svg">
  <path d="m7.999999-.00005693c-.1926 0-.383065.010178-.572265.023437-.0237.00175-.04651.00194-.07031.00391-2.8577999.22552-5.2791533 1.94280003-6.5019534 4.37500003-.079116.1574499-.1596861.3152656-.2285162.4785156-.37451.8457003-.5782944 1.74204-.6152344 2.68164-.00162.03035-.00262.06135-.00391.0918-.00247.08976-.00646.179012-.00586.269532-.0002321.02539-.00195.05073-.00195.07617 0 .93022.1657181 1.819337.4550781 2.6484383.11645.371679.2502294.746683.4121094 1.126953.40323.94731.454075 1.204793.390625 1.996093-.044209.55135-.1940394 1.114741-.3808594 1.431641-.16938.28738-.3046875.584666-.3046875.660156 0 .23342 1.3473157.151313 2.5410151-.154297 1.3984-.35802 1.521369-.357817 2.667969.002.5245303.1646 1.1215753.252873 1.7968753.277343.02825.0014.05761.0028.08594.0039.0924.003.181844.0078.277344.0078.0078 0 .01373.000057.02148 0 .01231.000055.02478 0 .03711 0 .22339 0 .443449-.01152.662109-.0293 1.9778-.14065 3.566394-.871468 4.996094-2.298828 1.178-1.176 1.908766-2.627284 2.197266-4.1464853.02658-.13883.04706-.280545.06641-.421875.0117-.08676.02438-.172725.0332-.259765.01939-.18667.03067-.376057.03711-.566407.0014-.04797.0034-.09459.0039-.142578.000694-.04469.0039-.08994.0039-.134789 0-4.3580002-3.450397-7.87784083-7.779297-7.99414083-.0336-.0015-.06786-.00142-.101562-.00195-.04-.0005828-.07904-.00391-.119141-.00391zm-2.4999999 4.00000003c.8284269 0 1.4999999.6715729 1.4999999 1.4999999 0 .5 0 1.4999997-1 1.4999997 0 1 2.031563 2.945724 3 3 0-1 1-1 1.5-1 .828427 0 1.5.671573 1.5 1.5000003 0 .828427-.671573 1.5-1.5 1.5h-.560547c-.296314-.006492-.641709-.115949-1.126953-.292969-1.622947-.59206-2.749657-1.542497-3.904297-3.2929683-.6725949-1.019683-.904603-1.633338-.908203-2.396485v-.5175777c0-.828427.671573-1.4999999 1.5000001-1.4999999z" fill="#808080"/>
</svg>

<svg xmlns="http://www.w3.org/2000/svg" width="16" height="16" version="1.1">
 <defs>
  <style id="current-color-scheme" type="text/css">
   .ColorScheme-Text { color:#5c616c; } .ColorScheme-Highlight { color:#5294e2; } .ColorScheme-ButtonBackground { color:#808080; }
  </style>
 </defs>
 <path class="ColorScheme-ButtonBackground" d="m 7.999999,-5.6933333e-5 c -0.1926,0 -0.383065,0.01017800333 -0.572265,0.02343700333 -0.0237,0.00175 -0.04651,0.00194 -0.07031,0.00391 C 4.4996241,0.25281007 2.0782707,1.9700901 0.8554706,4.4022901 0.7763546,4.55974 0.6957845,4.7175557 0.6269544,4.8808057 0.2524444,5.726506 0.04866,6.6228457 0.01172,7.5624457 0.0101,7.5927957 0.0091,7.6237957 0.00781,7.6542457 0.00534,7.7440057 0.00135,7.8332577 0.00195,7.9237777 0.0017179,7.9491677 0,7.9745077 0,7.9999477 c 0,0.93022 0.1657181,1.819337 0.4550781,2.6484383 0.11645,0.371679 0.2502294,0.746683 0.4121094,1.126953 0.40323,0.94731 0.454075,1.204793 0.390625,1.996093 -0.044209,0.55135 -0.1940394,1.114741 -0.3808594,1.431641 -0.16938,0.28738 -0.3046875,0.584666 -0.3046875,0.660156 0,0.23342 1.3473157,0.151313 2.5410151,-0.154297 1.3984,-0.35802 1.521369,-0.357817 2.667969,0.002 0.5245303,0.1646 1.1215753,0.252873 1.7968753,0.277343 0.02825,0.0014 0.05761,0.0028 0.08594,0.0039 0.0924,0.003 0.181844,0.0078 0.277344,0.0078 0.0078,0 0.01373,5.7e-5 0.02148,0 0.01231,5.5e-5 0.02478,0 0.03711,0 0.22339,0 0.443449,-0.01152 0.662109,-0.0293 1.9778,-0.14065 3.566394,-0.871468 4.996094,-2.298828 1.178,-1.176 1.908766,-2.627284 2.197266,-4.1464853 0.02658,-0.13883 0.04706,-0.280545 0.06641,-0.421875 0.0117,-0.08676 0.02438,-0.172725 0.0332,-0.259765 0.01939,-0.18667 0.03067,-0.376057 0.03711,-0.566407 0.0014,-0.04797 0.0034,-0.09459 0.0039,-0.142578 6.94e-4,-0.04469 0.0039,-0.08994 0.0039,-0.134789 0,-4.3580002 -3.450397,-7.87784083 -7.779297,-7.99414083 -0.0336,-0.0015 -0.06786,-0.00142 -0.101562,-0.00195 -0.04,-5.828e-4 -0.07904,-0.0039100033 -0.119141,-0.0039100033 z M 5.4999991,3.9999431 c 0.8284269,0 1.4999999,0.6715729 1.4999999,1.4999999 0,0.5 0,1.4999997 -1,1.4999997 0,1 2.031563,2.945724 3,3 0,-1 1,-1 1.5,-1 0.828427,0 1.5,0.671573 1.5,1.5000003 0,0.828427 -0.671573,1.5 -1.5,1.5 H 9.939452 C 9.643138,11.993451 9.297743,11.883994 8.812499,11.706974 7.189552,11.114914 6.062842,10.164477 4.908202,8.4140057 4.2356071,7.3943227 4.003599,6.7806677 3.999999,6.0175207 V 5.499943 c 0,-0.828427 0.671573,-1.4999999 1.5000001,-1.4999999 z" style="fill:currentColor"/>
</svg>
